images/button-chat.svg

<svg width="48" height="49" viewBox="0 0 48 49" fill="none" xmlns="http://www.w3.org/2000/svg">
<g clip-path="url(#clip0_213_487)">
<path d="M1.02354 23.8791C1.02241 27.9403 2.08355 31.9057 4.1013 35.4009L0.830566 47.3428L13.0517 44.1384C16.4319 45.9786 20.2192 46.9428 24.0678 46.943H24.0779C36.7829 46.943 47.1252 36.6046 47.1306 23.8973C47.133 17.7397 44.7372 11.9495 40.3843 7.59326C36.0322 3.23741 30.2441 0.837283 24.077 0.834473C11.3704 0.834473 1.02897 11.1724 1.02372 23.8791" fill="url(#paint0_linear_213_487)"/>
<path d="M0.200463 23.8712C0.199152 28.0785 1.29833 32.1857 3.38801 35.8061L0 48.1761L12.6593 44.8569C16.1474 46.7586 20.0746 47.7613 24.0707 47.7628H24.081C37.2419 47.7628 47.9556 37.0525 47.9612 23.8903C47.9635 17.5115 45.4815 11.5131 40.9731 7.00084C36.4642 2.48911 30.4691 0.00262288 24.081 0C10.9179 0 0.205709 10.7088 0.200463 23.8712ZM7.73956 35.1826L7.26688 34.4322C5.27986 31.2728 4.23108 27.6217 4.23258 23.8727C4.2367 12.9325 13.1403 4.03174 24.0885 4.03174C29.3905 4.03399 34.3732 6.10082 38.1209 9.85079C41.8685 13.6011 43.9306 18.5865 43.9293 23.8888C43.9244 34.829 35.0207 43.7309 24.081 43.7309H24.0732C20.5111 43.729 17.0176 42.7724 13.971 40.9647L13.2459 40.5347L5.73362 42.5043L7.73956 35.1826Z" fill="url(#paint1_linear_213_487)"/>
<path d="M18.1125 13.892C17.6655 12.8985 17.1951 12.8785 16.77 12.8611C16.4219 12.8461 16.024 12.8472 15.6264 12.8472C15.2285 12.8472 14.582 12.9969 14.0355 13.5936C13.4884 14.1909 11.9469 15.6342 11.9469 18.5697C11.9469 21.5055 14.0851 24.3425 14.3832 24.741C14.6816 25.1388 18.511 31.3557 24.5759 33.7474C29.6163 35.735 30.642 35.3397 31.736 35.24C32.8301 35.1407 35.2664 33.7971 35.7634 32.4038C36.2608 31.0106 36.2608 29.8165 36.1117 29.5669C35.9626 29.3183 35.5646 29.169 34.9679 28.8707C34.371 28.5723 31.4375 27.1288 30.8906 26.9296C30.3436 26.7307 29.9459 26.6314 29.5479 27.2288C29.15 27.8253 28.0074 29.169 27.6591 29.5669C27.3112 29.9658 26.9629 30.0154 26.3664 29.717C25.7693 29.4176 23.8477 28.7883 21.5678 26.7558C19.794 25.1742 18.5965 23.2211 18.2484 22.6236C17.9003 22.0271 18.2111 21.7037 18.5103 21.4064C18.7784 21.139 19.1072 20.7096 19.4058 20.3614C19.7033 20.0129 19.8026 19.7643 20.0016 19.3664C20.2007 18.9681 20.1011 18.6196 19.9521 18.3211C19.8026 18.0227 18.6431 15.0718 18.1125 13.892Z" fill="white"/>
</g>
<defs>
<linearGradient id="paint0_linear_213_487" x1="2315.83" y1="4651.67" x2="2315.83" y2="0.834473" gradientUnits="userSpaceOnUse">
<stop stop-color="#1FAF38"/>
<stop offset="1" stop-color="#60D669"/>
</linearGradient>
<linearGradient id="paint1_linear_213_487" x1="2398.06" y1="4817.61" x2="2398.06" y2="0" gradientUnits="userSpaceOnUse">
<stop stop-color="#F9F9F9"/>
<stop offset="1" stop-color="white"/>
</linearGradient>
<clipPath id="clip0_213_487">
<rect width="47.9612" height="48.3359" fill="white"/>
</clipPath>
</defs>
</svg>

<svg xmlns="http://www.w3.org/2000/svg" width="48" height="49" fill="none"><g clip-path="url(#a)"><path fill="url(#b)" d="M1.024 23.88A23.005 23.005 0 0 0 4.1 35.4L.831 47.344l12.22-3.205a23.042 23.042 0 0 0 11.017 2.805h.01c12.705 0 23.047-10.338 23.053-23.046a22.903 22.903 0 0 0-6.747-16.304C36.032 3.237 30.244.837 24.077.834 11.37.834 1.029 11.172 1.024 23.88"/><path fill="url(#c)" d="M.2 23.871a23.83 23.83 0 0 0 3.188 11.935L0 48.176l12.66-3.32a23.87 23.87 0 0 0 11.41 2.907h.011c13.16 0 23.875-10.71 23.88-23.873A23.728 23.728 0 0 0 40.973 7C36.464 2.49 30.47.004 24.081 0 10.918 0 .206 10.709.201 23.871Zm7.54 11.312-.473-.75a19.79 19.79 0 0 1-3.034-10.56c.004-10.94 8.907-19.841 19.855-19.841A19.72 19.72 0 0 1 38.121 9.85a19.722 19.722 0 0 1 5.808 14.038c-.005 10.94-8.908 19.842-19.848 19.842h-.008a19.826 19.826 0 0 1-10.102-2.766l-.725-.43-7.512 1.97 2.006-7.322Z"/><path fill="#fff" d="M18.113 13.892c-.447-.993-.918-1.013-1.343-1.03-.348-.016-.746-.015-1.144-.015-.397 0-1.044.15-1.59.747-.548.597-2.09 2.04-2.09 4.976s2.14 5.773 2.437 6.171c.299.398 4.128 6.615 10.193 9.006 5.04 1.988 6.066 1.593 7.16 1.493 1.094-.1 3.53-1.443 4.027-2.836.498-1.393.498-2.588.349-2.837-.15-.249-.547-.398-1.144-.696-.597-.299-3.53-1.742-4.077-1.941-.547-.2-.945-.299-1.343.299-.398.596-1.54 1.94-1.889 2.338-.348.399-.696.448-1.293.15-.597-.3-2.518-.929-4.798-2.961-1.774-1.582-2.972-3.535-3.32-4.132-.348-.597-.037-.92.262-1.218.268-.267.597-.696.896-1.045.297-.348.397-.597.596-.995.199-.398.1-.746-.05-1.045-.15-.298-1.309-3.25-1.84-4.429Z"/></g><defs><linearGradient id="b" x1="2315.83" x2="2315.83" y1="4651.67" y2=".834" gradientUnits="userSpaceOnUse"><stop stop-color="#1FAF38"/><stop offset="1" stop-color="#60D669"/></linearGradient><linearGradient id="c" x1="2398.06" x2="2398.06" y1="4817.61" y2="0" gradientUnits="userSpaceOnUse"><stop stop-color="#F9F9F9"/><stop offset="1" stop-color="#fff"/></linearGradient><clipPath id="a"><path fill="#fff" d="M0 0h47.961v48.336H0z"/></clipPath></defs></svg>
